app/component-library/components/Icons/Icon/assets/tag.svg

<svg width="24" height="24" viewBox="0 0 24 24" fill="none" xmlns="http://www.w3.org/2000/svg">
<path d="M20.1112 8.6998L15.5812 4.1698C14.6312 3.2198 13.3212 2.7098 11.9812 2.7798L6.98123 3.0198C4.98123 3.1098 3.39123 4.6998 3.29123 6.6898L3.05123 11.6898C2.99123 13.0298 3.49123 14.3398 4.44123 15.2898L8.97122 19.8198C10.8312 21.6798 13.8512 21.6798 15.7212 19.8198L20.1112 15.4298C21.9812 13.5798 21.9812 10.5598 20.1112 8.6998ZM9.78123 12.3798C8.19123 12.3798 6.90123 11.0898 6.90123 9.4998C6.90123 7.9098 8.19123 6.6198 9.78123 6.6198C11.3712 6.6198 12.6612 7.9098 12.6612 9.4998C12.6612 11.0898 11.3712 12.3798 9.78123 12.3798Z" fill="currentColor"/>
</svg>

<svg xmlns="http://www.w3.org/2000/svg" width="24" height="24" viewBox="0 0 24 24" fill="none"><path fill="currentColor" d="m20.111 8.7-4.53-4.53a4.75 4.75 0 0 0-3.6-1.39l-5 .24c-2 .09-3.59 1.68-3.69 3.67l-.24 5c-.06 1.34.44 2.65 1.39 3.6l4.53 4.53a4.78 4.78 0 0 0 6.75 0l4.39-4.39a4.738 4.738 0 0 0 0-6.73Zm-10.33 3.68a2.88 2.88 0 1 1 .002-5.762 2.88 2.88 0 0 1-.002 5.762Z"/></svg>
